build/Karasa-Jaga/scalable/status/security-high-symbolic.svg

<svg height="16" width="16" xmlns="http://www.w3.org/2000/svg"><g fill="#bebebe"><path d="m7.8769531.90429688c-1.8272738 1.57895582-4.0257716 2.50253442-6.3574219 3.16992192.9600755 4.5120099 3.3221027 9.0592242 6.4433594 10.8964842 4.2864814-3.436517 5.7849574-6.9382922 6.5292974-10.892578-2.336172-.6677151-4.538754-1.5921563-6.3691411-3.17382812zm-.2402343 1.17578122c.00915-.0000968.018298.0005553.027344.00195.2512213.033869.4827029-.00195.6933594-.00195.0359.0001276.070813.011765.099609.033203 1.3740843 1.0023127 2.8599258 1.7326589 4.4199218 2.2695313.03922.013773.07193.041612.0918.078125l.375.6835937c.0204.03617.02666.07862.01758.1191407-.704807 2.9162522-2.096229 5.5566912-4.9589892 8.1425782-.031092.02793-.071487.04325-.1132813.04297l-.3896485.146481-.3740234-.142581c-.0401945-.000133-.0790061-.014689-.109375-.04102-2.0328714-1.765875-3.7195682-4.8129124-4.6757812-8.1581938-.0113787-.0404094-.0071974-.0836161.0117187-.1210937l.3398438-.6953125c.019629-.039481.054007-.06965.095703-.083984 1.5388711-.5345842 3.0018928-1.2528809 4.3554688-2.2402344.027177-.020287.059863-.031863.09375-.033203z"/><path d="m8 3.53125c-1.1774877.8016408-2.3837462 1.4829581-3.65625 1.96875.8473689 2.5923284 2.1239816 4.947273 3.53125 6.40625 2.159504-2.0620512 3.28101-4.0718128 3.90625-6.34375-1.317426-.4937333-2.5635139-1.2022078-3.78125-2.03125z"/></g></svg>

<?xml version="1.0" encoding="UTF-8" standalone="no"?>
<!-- Created with Inkscape (http://www.inkscape.org/) -->

<svg
   xmlns:dc="http://purl.org/dc/elements/1.1/"
   xmlns:cc="http://creativecommons.org/ns#"
   xmlns:rdf="http://www.w3.org/1999/02/22-rdf-syntax-ns#"
   xmlns:svg="http://www.w3.org/2000/svg"
   xmlns="http://www.w3.org/2000/svg"
   xmlns:sodipodi="http://sodipodi.sourceforge.net/DTD/sodipodi-0.dtd"
   xmlns:inkscape="http://www.inkscape.org/namespaces/inkscape"
   id="svg7384"
   height="16"
   width="16"
   version="1.1"
   inkscape:version="0.92.2 (unknown)"
   sodipodi:docname="security-high-symbolic.svg">
  <defs
     id="defs4112" />
  <sodipodi:namedview
     pagecolor="#ffffff"
     bordercolor="#666666"
     borderopacity="1"
     objecttolerance="10"
     gridtolerance="10"
     guidetolerance="10"
     inkscape:pageopacity="0"
     inkscape:pageshadow="2"
     inkscape:window-width="1366"
     inkscape:window-height="649"
     id="namedview4110"
     showgrid="false"
     inkscape:zoom="16"
     inkscape:cx="6.859822"
     inkscape:cy="3.9673689"
     inkscape:window-x="0"
     inkscape:window-y="30"
     inkscape:window-maximized="1"
     inkscape:current-layer="svg7384" />
  <metadata
     id="metadata90">
    <rdf:RDF>
      <cc:Work
         rdf:about="">
        <dc:format>image/svg+xml</dc:format>
        <dc:type
           rdf:resource="http://purl.org/dc/dcmitype/StillImage" />
        <dc:title>Gnome Symbolic Icon Theme</dc:title>
      </cc:Work>
    </rdf:RDF>
  </metadata>
  <title
     id="title9167">Gnome Symbolic Icon Theme</title>
  <path
     style="fill:#bebebe;fill-opacity:1;stroke:none"
     d="M 7.8769531,0.90429688 C 6.0496793,2.4832527 3.8511815,3.4068313 1.5195312,4.0742188 2.4796067,8.5862287 4.8416339,13.133443 7.9628906,14.970703 12.249372,11.534186 13.747848,8.0324108 14.492188,4.078125 12.156016,3.4104099 9.953434,2.4859687 8.1230469,0.90429688 Z M 7.6367188,2.0800781 c 0.00915,-9.68e-5 0.018298,5.553e-4 0.027344,0.00195 0.2512213,0.033869 0.4827029,-0.00195 0.6933594,-0.00195 0.0359,1.276e-4 0.070813,0.011765 0.099609,0.033203 1.3740843,1.0023127 2.8599258,1.7326589 4.4199218,2.2695313 0.03922,0.013773 0.07193,0.041612 0.0918,0.078125 l 0.375,0.6835937 c 0.0204,0.03617 0.02666,0.07862 0.01758,0.1191407 -0.704807,2.9162522 -2.096229,5.5566912 -4.9589892,8.1425782 -0.031092,0.02793 -0.071487,0.04325 -0.1132813,0.04297 L 7.899414,13.595701 7.5253906,13.45312 C 7.4851961,13.452987 7.4463845,13.438431 7.4160156,13.4121 5.3831442,11.646225 3.6964474,8.5991876 2.7402344,5.2539062 2.7288557,5.2134968 2.733037,5.1702901 2.7519531,5.1328125 L 3.0917969,4.4375 c 0.019629,-0.039481 0.054007,-0.06965 0.095703,-0.083984 1.5388711,-0.5345842 3.0018928,-1.2528809 4.3554688,-2.2402344 0.027177,-0.020287 0.059863,-0.031863 0.09375,-0.033203 z"
     id="path4125"
     inkscape:connector-curvature="0"
     sodipodi:nodetypes="ccccccccccccccccccccccccc" />
  <path
     sodipodi:type="inkscape:offset"
     inkscape:radius="-2.8157651"
     inkscape:original="M 7.71875 0.40625 C 5.821138 2.1074547 3.449484 3.0633446 0.90625 3.75 C 1.849037 8.6346146 4.399843 13.688846 8 15.59375 C 12.76324 11.887149 14.350075 8.040272 15.09375 3.75 C 12.550516 3.0633446 10.178862 2.1074547 8.28125 0.40625 L 7.71875 0.40625 z "
     style="fill:#bebebe;fill-opacity:1;stroke:none"
     id="path4144"
     d="M 8,3.53125 C 6.8225123,4.3328908 5.6162538,5.0142081 4.34375,5.5 5.1911189,8.0923284 6.4677316,10.447273 7.875,11.90625 10.034504,9.8441988 11.15601,7.8344372 11.78125,5.5625 10.463824,5.0687667 9.2177361,4.3602922 8,3.53125 z" />
</svg>
